svgs/sharp-regular/person-shelter.svg

<svg xmlns="http://www.w3.org/2000/svg" viewBox="0 0 512 512"><!--! Font Awesome Pro 6.6.0 by @fontawesome - https://fontawesome.com License - https://fontawesome.com/license (Commercial License) Copyright 2024 Fonticons, Inc. --><path d="M48 172.1L48 512 0 512 0 144 256 0 512 144l0 368-48 0 0-339.9L256 55.1 48 172.1zM256 128a40 40 0 1 1 0 80 40 40 0 1 1 0-80zm-62.3 96l14.3 0 96 0 14.3 0 6.8 12.6 56 104 11.4 21.1-42.3 22.8-11.4-21.1-18.9-35L320 488l0 24-48 0 0-24 0-72-32 0 0 72 0 24-48 0 0-24 0-159.7-18.9 35-11.4 21.1-42.3-22.8 11.4-21.1 56-104 6.8-12.6zM240 368l32 0 0-96-32 0 0 96z"/></svg>

<svg xmlns="http://www.w3.org/2000/svg" viewBox="0 0 512 512"><!--! Font Awesome Pro 6.4.2 by @fontawesome - https://fontawesome.com License - https://fontawesome.com/license (Commercial License) Copyright 2023 Fonticons, Inc. --><path d="M48 172.1V512H0V144L256 0 512 144V512H464V172.1L256 55.1 48 172.1zM256 128a40 40 0 1 1 0 80 40 40 0 1 1 0-80zm-62.3 96H208h96 14.3l6.8 12.6 56 104 11.4 21.1-42.3 22.8-11.4-21.1-18.9-35V488v24H272V488 416H240v72 24H192V488 328.3l-18.9 35-11.4 21.1-42.3-22.8 11.4-21.1 56-104 6.8-12.6zM240 368h32V272H240v96z"/></svg>
